static/img/device/installation-device3-bew3.svg

<svg width="219" height="151" viewBox="0 0 219 151" fill="none" xmlns="http://www.w3.org/2000/svg">
<g clip-path="url(#clip0_1612_2497)">
<path d="M218.67 0H0V150.72H218.67V0Z" fill="white"/>
<path d="M56.88 89.7902L56.71 87.9302" stroke="#231815" stroke-width="0.5" stroke-linecap="round" stroke-linejoin="round"/>
<path d="M62.71 89.7902L62.87 87.9302" stroke="#231815" stroke-width="0.5" stroke-linecap="round" stroke-linejoin="round"/>
<path d="M45.47 92.1001L49.62 88.6201" stroke="#231815" stroke-width="0.5" stroke-linecap="round" stroke-linejoin="round"/>
<path d="M38.15 93.1702H42.54" stroke="#231815" stroke-width="0.5" stroke-linecap="round" stroke-linejoin="round"/>
<path d="M62.25 90.2002H57.33" stroke="#231815" stroke-width="0.5" stroke-linecap="round" stroke-linejoin="round"/>
<path d="M72.3199 90.6001L74.1099 92.1001" stroke="#231815" stroke-width="0.5" stroke-linecap="round" stroke-linejoin="round"/>
<path d="M42.54 93.1701C43.61 93.1701 44.65 92.7901 45.47 92.1001" stroke="#231815" stroke-width="0.5" stroke-linecap="round" stroke-linejoin="round"/>
<path d="M56.88 89.79C56.9 90.03 57.1 90.21 57.33 90.21" stroke="#231815" stroke-width="0.5" stroke-linecap="round" stroke-linejoin="round"/>
<path d="M62.25 90.2C62.49 90.2 62.68 90.02 62.7 89.78" stroke="#231815" stroke-width="0.5" stroke-linecap="round" stroke-linejoin="round"/>
<path d="M74.11 92.1001C74.93 92.7901 75.97 93.1701 77.04 93.1701" stroke="#231815" stroke-width="0.5" stroke-linecap="round" stroke-linejoin="round"/>
<path d="M101.94 78.3602C101.94 76.4702 100.41 74.9402 98.52 74.9402C96.63 74.9402 95.1 76.4702 95.1 78.3602C95.1 80.2502 96.63 81.7802 98.52 81.7802C100.41 81.7802 101.94 80.2502 101.94 78.3602Z" stroke="#231815" stroke-width="0.5" stroke-linecap="round" stroke-linejoin="round"/>
<path d="M69.96 88.6201L72.32 90.6001" stroke="#231815" stroke-width="0.5" stroke-linecap="round" stroke-linejoin="round"/>
<path d="M51.53 87.9302H68.06" stroke="#231815" stroke-width="0.5" stroke-linecap="round" stroke-linejoin="round"/>
<path d="M69.9599 88.6202C69.4299 88.1702 68.7499 87.9302 68.0599 87.9302" stroke="#231815" stroke-width="0.5" stroke-linecap="round" stroke-linejoin="round"/>
<path d="M51.53 87.9302C50.83 87.9302 50.16 88.1802 49.63 88.6202" stroke="#231815" stroke-width="0.5" stroke-linecap="round" stroke-linejoin="round"/>
<path d="M102.97 78.3602C102.97 75.9102 100.98 73.9202 98.53 73.9202C96.08 73.9202 94.09 75.9102 94.09 78.3602C94.09 80.8102 96.08 82.8002 98.53 82.8002C100.98 82.8002 102.97 80.8102 102.97 78.3602Z" stroke="#231815" stroke-width="0.5" stroke-linecap="round" stroke-linejoin="round"/>
<path d="M109.15 90.8901H87.89" stroke="#231815" stroke-width="0.5" stroke-linecap="round" stroke-linejoin="round"/>
<path d="M87.88 91.8002L88.28 69.2102" stroke="#231815" stroke-width="0.5" stroke-linecap="round" stroke-linejoin="round"/>
<path d="M95.95 69.2402H106.54" stroke="#231815" stroke-width="0.5" stroke-linecap="round" stroke-linejoin="round"/>
<path d="M109.17 91.8L110.56 93.17" stroke="#231815" stroke-width="0.5" stroke-linecap="round" stroke-linejoin="round"/>
<path d="M108.82 71.4802L109.17 91.8002" stroke="#231815" stroke-width="0.5" stroke-linecap="round" stroke-linejoin="round"/>
<path d="M86.49 93.17L87.88 91.8" stroke="#231815" stroke-width="0.5" stroke-linecap="round" stroke-linejoin="round"/>
<path d="M108.82 71.4802C108.8 70.2402 107.78 69.2402 106.54 69.2402" stroke="#231815" stroke-width="0.5" stroke-linecap="round" stroke-linejoin="round"/>
<path d="M38.6 74.1001C38.6 73.4701 39.11 72.9601 39.74 72.9601H43.39C44.02 72.9601 44.53 72.4601 44.53 71.8301" stroke="#231815" stroke-width="0.5" stroke-linecap="round" stroke-linejoin="round"/>
<path d="M38.6 74.1001V78.6601C38.6 79.9601 39.65 81.0001 40.94 81.0001H81.68C82.98 81.0001 84.02 79.9501 84.02 78.6601V76.7201V74.1001" stroke="#231815" stroke-width="0.5" stroke-linecap="round" stroke-linejoin="round"/>
<path d="M84.02 74.1001C84.02 73.4701 83.51 72.9601 82.88 72.9601H71.64C71.01 72.9601 70.5 72.4601 70.5 71.8301" stroke="#231815" stroke-width="0.5" stroke-linecap="round" stroke-linejoin="round"/>
<path d="M38.15 93.1701H15.37L17.83 17.3701C17.83 17.3001 17.87 17.2301 17.93 17.1901L20.6 15.4101C20.64 15.3801 20.73 15.3701 20.73 15.3701H123.93C123.98 15.3701 124.06 15.4101 124.06 15.4101L126.73 17.1901C126.79 17.2301 126.83 17.3001 126.83 17.3701L129.29 93.1701H42.95M129.29 93.1701H15.37" stroke="#231815" stroke-linecap="round" stroke-linejoin="round"/>
<path d="M95.84 69.21H70.5" stroke="#231815" stroke-width="0.5" stroke-linecap="round" stroke-linejoin="round"/>
<path d="M101.19 50.1902V63.8602" stroke="#231815" stroke-width="0.5" stroke-linecap="round" stroke-linejoin="round"/>
<path d="M41.95 44.8301H95.8399" stroke="#231815" stroke-width="0.5" stroke-linecap="round" stroke-linejoin="round"/>
<path d="M36.6 63.8602V50.1902" stroke="#231815" stroke-width="0.5" stroke-linecap="round" stroke-linejoin="round"/>
<path d="M41.95 44.8301C38.99 44.8301 36.6 47.2301 36.6 50.1801" stroke="#231815" stroke-width="0.5" stroke-linecap="round" stroke-linejoin="round"/>
<path d="M95.84 69.2101C98.8 69.2101 101.19 66.8101 101.19 63.8601" stroke="#231815" stroke-width="0.5" stroke-linecap="round" stroke-linejoin="round"/>
<path d="M101.19 50.1901C101.19 47.2301 98.79 44.8401 95.84 44.8401" stroke="#231815" stroke-width="0.5" stroke-linecap="round" stroke-linejoin="round"/>
<path d="M36.6 63.8601C36.6 66.8201 39 69.2101 41.95 69.2101H44.52V72.1601C44.52 72.6901 44.95 73.1201 45.48 73.1201H69.53C70.06 73.1201 70.49 72.6901 70.49 72.1601V69.2101" stroke="#231815" stroke-width="0.5" stroke-linecap="round" stroke-linejoin="round"/>
<path d="M203.31 130.03H104.62C102.76 130.03 101.24 128.52 101.24 126.65V104.77L99.75 103.24H97.19L95.91 104.77V126.65C95.91 131.45 99.82 135.36 104.62 135.36H203.31" fill="white"/>
<path d="M203.31 130.03H104.62C102.76 130.03 101.24 128.52 101.24 126.65V104.77L99.75 103.24H97.19L95.91 104.77V126.65C95.91 131.45 99.82 135.36 104.62 135.36H203.31" stroke="#231815" stroke-width="0.5" stroke-linecap="round" stroke-linejoin="round"/>
<path d="M203.31 132.01H104.72C101.72 132.01 99.28 129.57 99.28 126.57V104.54" stroke="#9FA0A0" stroke-width="0.25" stroke-linecap="round" stroke-linejoin="round"/>
<path d="M97.74 104.54V126.4C97.74 130.32 100.95 133.54 104.88 133.54H203.31" stroke="#9FA0A0" stroke-width="0.25" stroke-linecap="round" stroke-linejoin="round"/>
<path d="M105.33 115.58L104.06 123.08L110.89 119.73L108.99 118.31C109.61 117.24 109.93 116.11 109.93 114.92C109.93 110.21 104.8 106.38 98.4999 106.38C92.1999 106.38 87.0699 110.21 87.0699 114.92C87.0699 116.55 87.6799 118.13 88.8299 119.49L90.5299 118.05C89.7199 117.1 89.2999 116.01 89.2999 114.92C89.2999 111.44 93.4299 108.6 98.5099 108.6C103.59 108.6 107.72 111.43 107.72 114.92C107.72 115.62 107.54 116.31 107.21 116.97L105.33 115.57V115.58Z" fill="#231815"/>
<path d="M95.2 78.3701V85.1001C92.3 86.1201 90.28 88.4301 90.28 91.1301C90.28 94.7701 93.97 97.7201 98.52 97.7201C103.07 97.7201 106.76 94.7701 106.76 91.1301C106.76 88.4301 104.73 86.1101 101.83 85.0901V78.3601" fill="white"/>
<path d="M95.2 78.3701V85.1001C92.3 86.1201 90.28 88.4301 90.28 91.1301C90.28 94.7701 93.97 97.7201 98.52 97.7201C103.07 97.7201 106.76 94.7701 106.76 91.1301C106.76 88.4301 104.73 86.1101 101.83 85.0901V78.3601" stroke="#231815" stroke-width="0.5" stroke-linecap="round" stroke-linejoin="round"/>
<path d="M95.2 85.1C96.21 84.74 97.34 84.54 98.52 84.54C99.7 84.54 100.82 84.74 101.83 85.09" stroke="#231815" stroke-width="0.25" stroke-linecap="round" stroke-linejoin="round"/>
<path d="M102.25 90.0001V93.8101L98.51 95.7101L94.78 93.8101V90.0001L98.51 88.1001L102.25 90.0001Z" fill="#9FA0A0" stroke="#231815" stroke-width="0.25" stroke-linecap="round" stroke-linejoin="round"/>
<path d="M90.4299 92.4302C90.4299 88.7302 94.0499 85.7202 98.5099 85.7202C102.97 85.7202 106.59 88.7302 106.59 92.4302" stroke="#231815" stroke-width="0.25" stroke-linecap="round" stroke-linejoin="round"/>
</g>
<defs>
<clipPath id="clip0_1612_2497">
<rect width="218.67" height="150.72" fill="white"/>
</clipPath>
</defs>
</svg>

<svg xmlns="http://www.w3.org/2000/svg" width="219" height="151" fill="none" viewBox="0 0 219 151"><g clip-path="url(#a)"><path fill="#fff" d="M218.67 0H0v150.72h218.67z"/><path stroke="#231815" stroke-linecap="round" stroke-linejoin="round" stroke-width=".5" d="m56.88 89.79-.17-1.86M62.71 89.79l.16-1.86M45.47 92.1l4.15-3.48M38.15 93.17h4.39M62.25 90.2h-4.92M72.32 90.6l1.79 1.5M42.54 93.17c1.07 0 2.11-.38 2.93-1.07M56.88 89.79c.02.24.22.42.45.42M62.25 90.2c.24 0 .43-.18.45-.42M74.11 92.1c.82.69 1.86 1.07 2.93 1.07M101.94 78.36c0-1.89-1.53-3.42-3.42-3.42s-3.42 1.53-3.42 3.42 1.53 3.42 3.42 3.42 3.42-1.53 3.42-3.42M69.96 88.62l2.36 1.98M51.53 87.93h16.53M69.96 88.62c-.53-.45-1.21-.69-1.9-.69M51.53 87.93c-.7 0-1.37.25-1.9.69"/><path stroke="#231815" stroke-linecap="round" stroke-linejoin="round" stroke-width=".5" d="M102.97 78.36c0-2.45-1.99-4.44-4.44-4.44s-4.44 1.99-4.44 4.44 1.99 4.44 4.44 4.44 4.44-1.99 4.44-4.44M109.15 90.89H87.89M87.88 91.8l.4-22.59M95.95 69.24h10.59M109.17 91.8l1.39 1.37M108.82 71.48l.35 20.32M86.49 93.17l1.39-1.37M108.82 71.48a2.284 2.284 0 0 0-2.28-2.24M38.6 74.1c0-.63.51-1.14 1.14-1.14h3.65c.63 0 1.14-.5 1.14-1.13M38.6 74.1v4.56c0 1.3 1.05 2.34 2.34 2.34h40.74c1.3 0 2.34-1.05 2.34-2.34V74.1M84.02 74.1c0-.63-.51-1.14-1.14-1.14H71.64c-.63 0-1.14-.5-1.14-1.13"/><path stroke="#231815" stroke-linecap="round" stroke-linejoin="round" d="M38.15 93.17H15.37l2.46-75.8c0-.07.04-.14.1-.18l2.67-1.78c.04-.03.13-.04.13-.04h103.2c.05 0 .13.04.13.04l2.67 1.78c.06.04.1.11.1.18l2.46 75.8H42.95m86.34 0H15.37"/><path stroke="#231815" stroke-linecap="round" stroke-linejoin="round" stroke-width=".5" d="M95.84 69.21H70.5M101.19 50.19v13.67M41.95 44.83h53.89M36.6 63.86V50.19M41.95 44.83a5.35 5.35 0 0 0-5.35 5.35M95.84 69.21c2.96 0 5.35-2.4 5.35-5.35M101.19 50.19c0-2.96-2.4-5.35-5.35-5.35M36.6 63.86c0 2.96 2.4 5.35 5.35 5.35h2.57v2.95c0 .53.43.96.96.96h24.05c.53 0 .96-.43.96-.96v-2.95"/><path fill="#fff" d="M203.31 130.03h-98.69c-1.86 0-3.38-1.51-3.38-3.38v-21.88l-1.49-1.53h-2.56l-1.28 1.53v21.88c0 4.8 3.91 8.71 8.71 8.71h98.69"/><path stroke="#231815" stroke-linecap="round" stroke-linejoin="round" stroke-width=".5" d="M203.31 130.03h-98.69c-1.86 0-3.38-1.51-3.38-3.38v-21.88l-1.49-1.53h-2.56l-1.28 1.53v21.88c0 4.8 3.91 8.71 8.71 8.71h98.69"/><path stroke="#9fa0a0" stroke-linecap="round" stroke-linejoin="round" stroke-width=".25" d="M203.31 132.01h-98.59c-3 0-5.44-2.44-5.44-5.44v-22.03"/><path stroke="#9fa0a0" stroke-linecap="round" stroke-linejoin="round" stroke-width=".25" d="M97.74 104.54v21.86c0 3.92 3.21 7.14 7.14 7.14h98.43"/><path fill="#231815" d="m105.33 115.58-1.27 7.5 6.83-3.35-1.9-1.42c.62-1.07.94-2.2.94-3.39 0-4.71-5.13-8.54-11.43-8.54s-11.43 3.83-11.43 8.54c0 1.63.61 3.21 1.76 4.57l1.7-1.44c-.81-.95-1.23-2.04-1.23-3.13 0-3.48 4.13-6.32 9.21-6.32s9.21 2.83 9.21 6.32c0 .7-.18 1.39-.51 2.05l-1.88-1.4z"/><path fill="#fff" d="M95.2 78.37v6.73c-2.9 1.02-4.92 3.33-4.92 6.03 0 3.64 3.69 6.59 8.24 6.59s8.24-2.95 8.24-6.59c0-2.7-2.03-5.02-4.93-6.04v-6.73"/><path stroke="#231815" stroke-linecap="round" stroke-linejoin="round" stroke-width=".5" d="M95.2 78.37v6.73c-2.9 1.02-4.92 3.33-4.92 6.03 0 3.64 3.69 6.59 8.24 6.59s8.24-2.95 8.24-6.59c0-2.7-2.03-5.02-4.93-6.04v-6.73"/><path stroke="#231815" stroke-linecap="round" stroke-linejoin="round" stroke-width=".25" d="M95.2 85.1c1.01-.36 2.14-.56 3.32-.56s2.3.2 3.31.55"/><path fill="#9fa0a0" stroke="#231815" stroke-linecap="round" stroke-linejoin="round" stroke-width=".25" d="M102.25 90v3.81l-3.74 1.9-3.73-1.9V90l3.73-1.9z"/><path stroke="#231815" stroke-linecap="round" stroke-linejoin="round" stroke-width=".25" d="M90.43 92.43c0-3.7 3.62-6.71 8.08-6.71s8.08 3.01 8.08 6.71"/></g><defs><clipPath id="a"><path fill="#fff" d="M0 0h218.67v150.72H0z"/></clipPath></defs></svg>
